assets/image/common/icon_phone.svg

<svg height="36" viewBox="0 0 36 36" width="36" xmlns="http://www.w3.org/2000/svg"><path d="m34.973 25.439-7.873-3.375a1.687 1.687 0 0 0 -1.969.485l-3.49 4.261a26.062 26.062 0 0 1 -12.458-12.459l4.261-3.488a1.683 1.683 0 0 0 .485-1.963l-3.375-7.88a1.7 1.7 0 0 0 -1.934-.977l-7.312 1.687a1.688 1.688 0 0 0 -1.308 1.645 32.621 32.621 0 0 0 32.625 32.625 1.687 1.687 0 0 0 1.645-1.308l1.687-7.313a1.708 1.708 0 0 0 -.985-1.941z" fill="#7a300a"/></svg>

<svg xmlns="http://www.w3.org/2000/svg" width="36" height="36" viewBox="0 0 36 36">
  <path id="Icon_awesome-phone-alt" data-name="Icon awesome-phone-alt" d="M34.973,25.439,27.1,22.064a1.687,1.687,0,0,0-1.969.485L21.641,26.81A26.062,26.062,0,0,1,9.183,14.351l4.261-3.488A1.683,1.683,0,0,0,13.929,8.9L10.554,1.02A1.7,1.7,0,0,0,8.62.043L1.308,1.73A1.688,1.688,0,0,0,0,3.375,32.621,32.621,0,0,0,32.625,36a1.687,1.687,0,0,0,1.645-1.308l1.687-7.313a1.708,1.708,0,0,0-.985-1.941Z" transform="translate(0 0)" fill="#7a300a"/>
</svg>
